assets/WordPress-Logo.svg

<?xml version="1.0" encoding="UTF-8" standalone="no"?>
<svg xmlns:rdf="http://www.w3.org/1999/02/22-rdf-syntax-ns#" xmlns="http://www.w3.org/2000/svg" fill-rule="evenodd" xml:space="preserve" height="500" width="500" version="1.0" viewBox="0 0 5.5555557 5.5555555">
    <g transform="matrix(1.0755 0 0 1.0755 -3.5103 -1.6684)">
        <path fill="#464342" d="m5.8465 1.9131c0.57932 0 1.1068 0.222 1.5022 0.58547-0.1938-0.0052-0.3872 0.11-0.3952 0.3738-0.0163 0.5333 0.6377 0.6469 0.2853 1.7196l-0.2915 0.8873-0.7939-2.3386c-0.0123-0.0362 0.002-0.0568 0.0465-0.0568h0.22445c0.011665 0 0.021201-0.00996 0.021201-0.022158v-0.13294c0-0.012193-0.00956-0.022657-0.021201-0.022153-0.42505 0.018587-0.8476 0.018713-1.2676 0-0.0117-0.0005-0.0212 0.01-0.0212 0.0222v0.13294c0 0.012185 0.00954 0.022158 0.021201 0.022158h0.22568c0.050201 0 0.064256 0.016728 0.076091 0.049087l0.3262 0.8921-0.4907 1.4817-0.8066-2.3758c-0.01-0.0298 0.0021-0.0471 0.0308-0.0471h0.25715c0.011661 0 0.021197-0.00996 0.021197-0.022158v-0.13294c0-0.012193-0.00957-0.022764-0.021197-0.022153-0.2698 0.014331-0.54063 0.017213-0.79291 0.019803 0.39589-0.60984 1.0828-1.0134 1.8639-1.0134l-0.0000029-0.0000062zm1.9532 1.1633c0.17065 0.31441 0.26755 0.67464 0.26755 1.0574 0 0.84005-0.46675 1.5712-1.1549 1.9486l0.6926-1.9617c0.1073-0.3036 0.2069-0.7139 0.1947-1.0443h-0.000004zm-1.2097 3.1504c-0.2325 0.0827-0.4827 0.1278-0.7435 0.1278-0.2247 0-0.4415-0.0335-0.6459-0.0955l0.68415-1.9606 0.70524 1.9284v-1e-7zm-1.6938-0.0854c-0.75101-0.35617-1.2705-1.1213-1.2705-2.0075 0-0.32852 0.071465-0.64038 0.19955-0.92096l1.071 2.9285 0.000003-0.000003zm0.95023-4.4367c1.3413 0 2.4291 1.0878 2.4291 2.4291s-1.0878 2.4291-2.4291 2.4291-2.4291-1.0878-2.4291-2.4291 1.0878-2.4291 2.4291-2.4291zm0-0.15354c1.4261 0 2.5827 1.1566 2.5827 2.5827s-1.1566 2.5827-2.5827 2.5827-2.5827-1.1566-2.5827-2.5827 1.1566-2.5827 2.5827-2.5827z"/>
    </g>
</svg>

<?xml version="1.0" encoding="UTF-8" standalone="no"?>
<!DOCTYPE svg PUBLIC "-//W3C//DTD SVG 1.1//EN" "http://www.w3.org/Graphics/SVG/1.1/DTD/svg11.dtd">
<svg width="100%" height="100%" viewBox="0 0 512 512" version="1.1" xmlns="http://www.w3.org/2000/svg" xmlns:xlink="http://www.w3.org/1999/xlink" xml:space="preserve" xmlns:serif="http://www.serif.com/" style="fill-rule:evenodd;clip-rule:evenodd;stroke-linejoin:round;stroke-miterlimit:2;">
    <g id="WordPress-Logo" serif:id="WordPress-Logo">
        <g transform="matrix(1.039014,0,0,1.038925,-21.936345,-22.945861)">
            <circle cx="267.5" cy="268.5" r="243.5" style="fill:rgb(235,235,235);"/>
        </g>
        <g transform="matrix(97.956573,0,0,97.948122,-316.718221,-148.917538)">
            <path d="M5.846,1.913C6.426,1.913 6.953,2.135 7.349,2.499C7.155,2.493 6.962,2.609 6.954,2.872C6.937,3.406 7.591,3.519 7.239,4.592L6.947,5.479L6.153,3.141C6.141,3.104 6.155,3.084 6.2,3.084L6.424,3.084C6.436,3.084 6.446,3.074 6.446,3.062L6.446,2.929C6.446,2.917 6.436,2.906 6.424,2.907C5.999,2.925 5.577,2.925 5.157,2.907C5.145,2.906 5.136,2.917 5.136,2.929L5.136,3.062C5.136,3.074 5.145,3.084 5.157,3.084L5.382,3.084C5.433,3.084 5.447,3.101 5.459,3.133L5.785,4.025L5.294,5.507L4.487,3.131C4.477,3.101 4.49,3.084 4.518,3.084L4.775,3.084C4.787,3.084 4.797,3.074 4.797,3.062L4.797,2.929C4.797,2.917 4.787,2.906 4.775,2.907C4.506,2.921 4.235,2.924 3.982,2.926C4.378,2.317 5.065,1.913 5.846,1.913ZM7.8,3.076C7.97,3.391 8.067,3.751 8.067,4.134C8.067,4.974 7.6,5.705 6.912,6.082L7.605,4.121C7.712,3.817 7.812,3.407 7.8,3.076ZM6.59,6.227C6.357,6.309 6.107,6.355 5.846,6.355C5.622,6.355 5.405,6.321 5.201,6.259L5.885,4.298L6.59,6.227ZM4.896,6.141C4.145,5.785 3.626,5.02 3.626,4.134C3.626,3.805 3.697,3.494 3.825,3.213L4.896,6.141ZM5.846,1.705C7.188,1.705 8.276,2.792 8.276,4.134C8.276,5.475 7.188,6.563 5.846,6.563C4.505,6.563 3.417,5.475 3.417,4.134C3.417,2.793 4.505,1.705 5.846,1.705ZM5.846,1.551C7.273,1.551 8.429,2.708 8.429,4.134C8.429,5.56 7.273,6.717 5.846,6.717C4.42,6.717 3.264,5.56 3.264,4.134C3.264,2.708 4.42,1.551 5.846,1.551Z" style="fill:rgb(70,67,66);"/>
        </g>
    </g>
</svg>
